src/assets/img/cafecito-logo.svg

<svg fill="none" height="24" viewBox="0 0 27 24" width="27" xmlns="http://www.w3.org/2000/svg"><path d="m20.9519 0h-12.73186c-3.0983 0-5.63406 2.53576-5.63406 5.63406v2.41808c-1.5226.66731-2.58598 2.18556-2.58598 3.95356s1.06338 3.2863 2.58598 3.9536v2.4066c0 3.0983 2.53576 5.6341 5.63406 5.6341h12.73186c3.0983 0 5.6341-2.5358 5.6341-5.6341v-12.73184c0-3.0983-2.5358-5.63406-5.6341-5.63406z" fill="#8fa2cc"/><path d="m20.0188 15.7828c.7462-1.0662 1.1854-2.3635 1.1854-3.7627 0-3.63074-2.9433-6.57406-6.5741-6.57406-3.6307 0-6.57541 2.94332-6.57541 6.57406 0 3.6307 2.94331 6.574 6.57401 6.574 1.3561 0 2.6147-.4104 3.6609-1.1136l2.7955 1.0892z" fill="#c6ddf4"/><path d="m14.6302 2.78979c-3.8733 0-7.18684 2.38652-8.55589 5.76752h-1.4322c-1.89428 0-3.4341 1.54129-3.4341 3.43409 0 1.8929 1.54126 3.4341 3.4341 3.4341h1.40924c1.3547 3.4126 4.68405 5.8264 8.58025 5.8264 1.9847 0 3.8201-.6286 5.3255-1.6934l-1.5398-.5998c-1.1237.6142-2.4138.9643-3.7857.9643-4.364 0-7.9029-3.5374-7.9029-7.9029 0-4.36544 3.5374-7.90287 7.9029-7.90287 4.364 0 7.9029 3.53743 7.9029 7.90287 0 1.4279-.3803 2.7654-1.0419 3.9206l.587 1.5312c1.1208-1.5283 1.7837-3.4126 1.7837-5.4518-.0028-5.09732-4.1358-9.23031-9.2331-9.23031zm-9.98952 11.26811-.06745.0014c-1.1093-.0358-2.00191-.95-2.00191-2.0679 0-1.1107.88113-2.02055 1.98182-2.06647h1.08778c-.15642.67447-.24253 1.37477-.24253 2.09667 0 .7003.08037 1.3819.22818 2.0377h-.98589z" fill="#fff"/></svg>

<svg width="27" height="24" viewBox="0 0 27 24" fill="none" xmlns="http://www.w3.org/2000/svg">
<path d="M20.9519 0H8.22004C5.12174 0 2.58598 2.53576 2.58598 5.63406V8.05214C1.06338 8.71945 0 10.2377 0 12.0057C0 13.7737 1.06338 15.292 2.58598 15.9593V18.3659C2.58598 21.4642 5.12174 24 8.22004 24H20.9519C24.0502 24 26.586 21.4642 26.586 18.3659V5.63406C26.586 2.53576 24.0502 0 20.9519 0Z" fill="#8FA2CC"/>
<path d="M20.0188 15.7828C20.765 14.7166 21.2042 13.4193 21.2042 12.0201C21.2042 8.38936 18.2609 5.44604 14.6301 5.44604C10.9994 5.44604 8.05469 8.38936 8.05469 12.0201C8.05469 15.6508 10.998 18.5941 14.6287 18.5941C15.9848 18.5941 17.2434 18.1837 18.2896 17.4805L21.0851 18.5697L20.0188 15.7828Z" fill="#C6DDF4"/>
<path d="M14.6302 2.78979C10.7569 2.78979 7.44336 5.17631 6.07431 8.55731H4.64211C2.74783 8.55731 1.20801 10.0986 1.20801 11.9914C1.20801 13.8843 2.74927 15.4255 4.64211 15.4255H6.05135C7.40605 18.8381 10.7354 21.2519 14.6316 21.2519C16.6163 21.2519 18.4517 20.6233 19.9571 19.5585L18.4173 18.9587C17.2936 19.5729 16.0035 19.923 14.6316 19.923C10.2676 19.923 6.7287 16.3856 6.7287 12.0201C6.7287 7.65466 10.2661 4.11723 14.6316 4.11723C18.9956 4.11723 22.5345 7.65466 22.5345 12.0201C22.5345 13.448 22.1542 14.7855 21.4926 15.9407L22.0796 17.4719C23.2004 15.9436 23.8633 14.0593 23.8633 12.0201C23.8605 6.92278 19.7275 2.78979 14.6302 2.78979ZM4.64068 14.0579L4.57323 14.0593C3.46393 14.0235 2.57132 13.1093 2.57132 11.9914C2.57132 10.8807 3.45245 9.97085 4.55314 9.92493H5.64092C5.4845 10.5994 5.39839 11.2997 5.39839 12.0216C5.39839 12.7219 5.47876 13.4035 5.62657 14.0593H4.64068V14.0579Z" fill="white"/>
</svg>
